public/fonts/icons/video.svg

<?xml version="1.0" encoding="utf-8"?>

<!DOCTYPE svg PUBLIC "-//W3C//DTD SVG 1.1//EN" "http://www.w3.org/Graphics/SVG/1.1/DTD/svg11.dtd">
<svg version="1.1" xmlns="http://www.w3.org/2000/svg" xmlns:xlink="http://www.w3.org/1999/xlink" width="32" height="32" viewBox="0 0 32 32">
<g>
</g>
	<path d="M30 0c-2 0-28 0-28 0s-2 0-2 2 0 28 0 28 0 2 2 2 28 0 28 0 2 0 2-2 0-28 0-28 0-2-2-2zM6 30h-3v-4h3v4zM6 24h-3v-4h3v4zM6 18h-3v-4h3v4zM6 12h-3v-4h3v4zM6 6h-3v-4h3v4zM24 30h-16v-12h16v12zM24 14h-16v-12h16v12zM29 30h-3v-4h3v4zM29 24h-3v-4h3v4zM29 18h-3v-4h3v4zM29 12h-3v-4h3v4zM29 6h-3v-4h3v4z" fill="#000000"></path>
</svg>

<svg xmlns="http://www.w3.org/2000/svg" width="32" height="32" viewBox="0 0 32 32"><title>Video</title><path d="M30 0H2S0 0 0 2v28s0 2 2 2h28s2 0 2-2V2s0-2-2-2zM6 30H3v-4h3v4zm0-6H3v-4h3v4zm0-6H3v-4h3v4zm0-6H3V8h3v4zm0-6H3V2h3v4zm18 24H8V18h16v12zm0-16H8V2h16v12zm5 16h-3v-4h3v4zm0-6h-3v-4h3v4zm0-6h-3v-4h3v4zm0-6h-3V8h3v4zm0-6h-3V2h3v4z"/></svg>
